X: 4153
T: The DUCHESS OF BUCCLEUCH
R: Strathspey.
%R: strathspey
B: James Kerr "Merry Melodies" v.4 p.18 #153
Z: 2016 John Chambers <jc:trillian.mit.edu>
M: C
L: 1/16
K: Bb
%%slurgraces yes
%%graceslurs yes
(uDE) |\
vF3uG GFED FD3 D3B | F3GB3D F6 G2 |\
F3G GFED FD3 d3c | B3GF3C C4 (C2DE) |\
F3G GFED FD3 D3B |
F3GB3D F6 (de) |\
f3de3c d3Bc3A | B3G FD3 C6 |]\
g2 |\
fd3 d3g fd3 d3g | f3db3d f6 g2 |\
fd3 d3g f3d dfga |
b3gf3d dc3 c3g |\
fd3 d3g fd3 d3g | gfed b2d2 f4 (f2ga) |\
bagf gfed edcB dcBA | cBAG GFED {D}C4 C2 |]

%%sep 1 1 500
%%sep 1 1 500

